resources/svg/user-minus.svg

<svg xmlns="http://www.w3.org/2000/svg" viewBox="0 0 15 15" fill="currentColor"><path d="M5.5 0C3.56717 0 2 1.56567 2 3.49804C2 5.43041 3.56717 6.99609 5.5 6.99609C7.43283 6.99609 9 5.43041 9 3.49804C9 1.56567 7.43283 0 5.5 0Z" fill="black"/><path d="M10 8H15V7H10V8Z" fill="black"/><path d="M7.5 8.99414L3.5 8.99414C1.56711 8.99414 0 10.5605 0 12.4936V14.9909L11 14.9909V12.4936C11 10.5605 9.43288 8.99414 7.5 8.99414Z" fill="black"/></svg>

<svg xmlns="http://www.w3.org/2000/svg" viewBox="0 0 15 15" fill="currentColor"><path d="M5.5 0a3.499 3.499 0 100 6.996A3.499 3.499 0 105.5 0zM10 8h5V7h-5v1zm-2.5.994h-4a3.5 3.5 0 00-3.5 3.5v2.497h11v-2.497a3.5 3.5 0 00-3.5-3.5z" fill="currentColor"/></svg>
